X:1
T:Memories of Tomorrow
T:Memories of Tomorrow
T:Keith Jarrett
C:Keith Jarrett
L:1/8
M:4/4
K:C
V:1 treble nm="Piano" snm="Pno."
V:1
"Am" c2 BA- A G2 E- |"Amaj" EC- C6 |"Am7" c2 BA- A G2 G- |"Em7" G4 E2 G2 |"F" c2 BA-"F#dim" A2 G2 | %5
"C/G" E C3 A,2 C2 |"G7sus4" F2 ED- D2 CE- |"C" E4 A2 c2 |"D/F#" d2 dd- d2 A2 | %9
"Fmaj7" d2 c2 z B2 A |"C/E" c2 B2 A2 GG- |"Eb" G4"A7" G2 G2 |"Ab" G2 G2 F2 CF- | %13
"Fmaj7" F G3 C2 _E2 |"Bbsus4" F2 GF- F C2 =E- |"Cmaj7" E4 E2 E2 |"Bmaj7" E2 Be-"Bb7" e e2 d- | %17
"Am" d2 Ac-"F/Ab" [cc]3 z |"G" B2 Ad-"D7/F#" d c2 A- |"Fmaj7" A c3 C2 F2 |"Cmaj7/G" E4 E2 C2 | %21
"G7sus4" F2 E2 D2 C2 |"C" E8- |"Bmaj7" E6"Bb7" z2 |] %24

